img/union-18.svg

<svg fill="none" height="30" viewBox="0 0 30 30" width="30" xmlns="http://www.w3.org/2000/svg"><path d="m1.26074 28.8447h-.368259v.3683h.368259zm13.99396-27.61957c7.5252 0 13.6256 6.10042 13.6256 13.62567h.7366c0-7.93202-6.4302-14.36219-14.3622-14.362189zm-13.6257 13.62567c0-7.52525 6.10042-13.62567 13.6257-13.62567v-.736519c-7.93205 0-14.36222 6.430169-14.36222 14.362189zm0 13.9939v-13.9939h-.73652l.000001 13.9939zm13.6257-.3682h-13.99396v.7365h13.99396zm13.6256-13.6257c0 7.5252-6.1004 13.6257-13.6256 13.6257v.7365c7.932 0 14.3622-6.4302 14.3622-14.3622z" fill="#5b57ca"/></svg>

<svg width="30" height="30" viewBox="0 0 30 30" fill="none" xmlns="http://www.w3.org/2000/svg">
<path d="M1.26074 28.8447L0.892481 28.8447L0.892481 29.213L1.26074 29.213L1.26074 28.8447ZM15.2547 1.22513C22.7799 1.22513 28.8803 7.32555 28.8803 14.8508L29.6169 14.8508C29.6169 6.91878 23.1867 0.48861 15.2547 0.488611L15.2547 1.22513ZM1.629 14.8508C1.629 7.32555 7.72942 1.22513 15.2547 1.22513L15.2547 0.488611C7.32265 0.488611 0.89248 6.91878 0.89248 14.8508L1.629 14.8508ZM1.629 28.8447L1.629 14.8508L0.89248 14.8508L0.892481 28.8447L1.629 28.8447ZM15.2547 28.4765L1.26074 28.4765L1.26074 29.213L15.2547 29.213L15.2547 28.4765ZM28.8803 14.8508C28.8803 22.376 22.7799 28.4765 15.2547 28.4765L15.2547 29.213C23.1867 29.213 29.6169 22.7828 29.6169 14.8508L28.8803 14.8508Z" fill="#5B57CA"/>
</svg>
